X: 352
T: Gai yangyan
L: 1/8
M: 2/4
K: G
e2d e [I:setbarnb 1]| 
A A G A | 
e e d e | 
A4 | 
e e e g | 
dd2B | 
A> A A G | 
E2A2 | 
E E E G | 
A d F E | 
D4- | 
D4 |]

@@@ Tune index: 9226
